src/assets/images/prototype/produits-utilises/5-tablettes.svg

<svg width="374" height="438" viewBox="0 0 374 438" fill="none" xmlns="http://www.w3.org/2000/svg">
<path d="M3 64.6526C61.2317 60.7553 186.361 52.6853 221.025 51.5849C231.468 51.2534 245.826 51.3214 261.5 51.7407" stroke="#E0E0E0" stroke-width="5" stroke-linejoin="round" stroke-dasharray="10 10"/>
<path d="M339.177 26.0237C340.962 27.627 345.905 32.0669 351.397 37.0003C356.889 41.9336 357.197 49.1744 356.665 52.1781" stroke="#E0E0E0" stroke-width="5" stroke-linejoin="round" stroke-dasharray="10 10"/>
<path d="M335.711 22.905C330.219 17.9716 325.277 13.5317 323.492 11.9284C318.676 11.1116 307.664 10.1969 302.143 13.0722C295.242 16.6664 287.33 25.4737 284.409 28.7257C283.129 30.1504 275.066 39.44 266.082 50.0002" stroke="#E0E0E0" stroke-width="5" stroke-linejoin="round" stroke-dasharray="10 10"/>
<path d="M3 63.2773C5.70282 119.914 11.1085 238.797 11.1085 261.239C11.1085 283.682 11.1085 379.276 11.1085 424.267C53.1062 428.502 147.705 436.441 190.119 434.324C232.532 432.207 321.725 426.737 361.02 424.267C360.397 419.68 359.523 403.201 361.02 373.983C362.892 337.46 371 284 371 248.536C371 220.165 371 113.209 371 63.2773" stroke="#E0E0E0" stroke-width="5" stroke-linejoin="round" stroke-dasharray="10 10"/>
</svg>

<svg width="374" height="438" fill="none" xmlns="http://www.w3.org/2000/svg"><path d="M3 64.653c58.232-3.898 183.361-11.968 218.025-13.068 10.443-.332 24.801-.264 40.475.156m77.677-25.717L351.397 37c5.492 4.934 5.8 12.174 5.268 15.178m-20.954-29.273l-12.219-10.977c-4.816-.816-15.828-1.731-21.349 1.144-6.901 3.594-14.813 12.402-17.734 15.654-1.28 1.424-9.343 10.714-18.327 21.274" stroke="#E0E0E0" stroke-width="5" stroke-linejoin="round" stroke-dasharray="10 10"/><path d="M3 63.277c2.703 56.637 8.108 175.52 8.108 197.962v163.028c41.998 4.235 136.597 12.174 179.011 10.057 42.413-2.117 131.606-7.587 170.901-10.057-.623-4.587-1.497-21.066 0-50.284C362.892 337.46 371 284 371 248.536V63.277" stroke="#E0E0E0" stroke-width="5" stroke-linejoin="round" stroke-dasharray="10 10"/></svg>
